X:1
T:Title
%%score ( 1 2 ) ( 3 4 )
L:1/8
Q:1/4=80
M:4/4
K:Ab
V:1 treble nm="Strings 1, Soprano"
V:2 treble 
V:3 bass nm="Strings 1, Bass"
V:4 bass 
V:1
 z4 z2 [CE][CE] | [CE]2 [_C=D][=CE] [Ec]2 [EB][EA] | [FA]2 [EG][DF] [CE]2 [CE][CE] | %3
w: 1.~Let~ me~|walk~ in~ the~ path~ which~ my~|Sav ior~ hath~ trod,~ Let~ me~|
 [DE]2 [DG][DB] [DE]2 [DF][DE] | [CE]6 [CE][CA] | [Ec]2 [=D_c][E=c] [CA]2 [_DB][Ec] | %6
w: fol low~ so~ close~ by~ His~|side;~ For~ by~|trust ing~ in~ Him~ I~ am~|
 [Fd]2 [=Ec][Fd] [DF]2 [_EG][DF] | E2 [Ee][Fd] [Ec]2 [DB][DB] | [CA]6 [CA][DB] | %9
w: hap py~ and~ free,~ In~ the~|fold~ of~ His~ love~ let~ me~|hide.~ * *|
 [Ec]6 [=D_c][E=c] | [CA]6 [Ac][Bd] | [ce]6 [Ac]A | e6 z2 | [Ae]2 [A=d][Ae] [Ec]2 [DB][Ec] | %14
w: |||||
 [Fd]2 [=Ec][Fd] [DF]2 [_EG][DF] | E2 [Ee][Fd] [Ec]2 [DB][DB] | A6 z2 |] %17
w: |||
V:2
 x8 | x8 | x8 | x8 | x8 | x8 | x8 | x8 | x8 | x8 | x8 | x8 | G2 BA G2 [Ac][Ad] | x8 | x8 | x8 | %16
 C2 ED C2 z2 |] %17
V:3
 z4 z2 [A,,A,][A,,A,] | [A,,A,]2 [A,,A,][A,,A,] [A,,A,]2 [B,,G,][C,A,] | %2
 [D,A,]2 [D,A,][D,A,] [A,,A,]2 [A,,A,][A,,A,] | [E,G,]2 [E,B,][E,G,] [E,G,]2 [E,G,][E,G,] | %4
 [A,,A,]6 [A,,A,][A,,A,] | [A,,A,]2 [A,,A,][A,,A,] [A,,A,]2 [A,,A,][A,,A,] | %6
 [D,A,]2 [D,A,][D,A,] [D,A,]2 [D,A,][D,A,] | [C,A,]2 [C,A,][D,A,] [E,A,]2 [E,G,][E,G,] | %8
 [A,,A,]6 z2 | z2 [A,,A,][A,,A,] [A,,A,]2 [A,,A,][A,,A,] | [A,,A,]2 [C,A,][E,A,] A,2 z2 | %11
 z2 [A,E][A,E] [A,E]2 [A,E][A,C] | [E,B,]2 [E,D][E,C] [E,B,]2 A,[A,B,] | %13
 [A,C]2 [A,_C][A,=C] A,2 A,A, | [D,A,]2 [D,A,][D,A,] [D,A,]2 [D,A,][D,A,] | %15
 [C,A,]2 [C,A,][D,A,] [E,A,]2 [E,G,][E,G,] | A,2 G,F, E,2 z2 |] %17
V:4
 x8 | x8 | x8 | x8 | x8 | x8 | x8 | x8 | x8 | x8 | x8 | x8 | x8 | x8 | x8 | x8 | A,,6 z2 |] %17

